X: 10959
T: Drummore Lasses
R: slip jig
M: 9/8
K: Amixolydian
|:f|efe ecA cBA|e2 e ecA dcB|efe ecA cBA|g2 f gec d2:|
|:A|d2 g faf ece|faf ged cBA|d2 g faf ege|faf gec d2:|

